assets/sprite/svg/hero__faq_post.svg

<svg width="234" height="74" viewBox="0 0 234 74" fill="none" xmlns="http://www.w3.org/2000/svg">
<path d="M233.298 17.2169L232.62 8.40039L221.43 33.4934L224.142 40.2753L233.298 17.2169Z" fill="#5B4132"/>
<path d="M0 42.9869V37.9004L24.0757 14.842L232.28 8.73828L221.429 33.8313L230.924 61.9762L228.55 66.3844L26.7885 61.9762L0 42.9869Z" fill="#785340"/>
<path d="M0.338867 37.5621L24.0755 14.8427L232.619 8.3999L222.107 34.1711L230.923 61.9769L28.1447 58.9251L0.338867 37.5621Z" fill="#AD795E"/>
<path d="M227.967 15.0564C216.877 14.0348 190.673 12.9812 188.265 15.0566C185.857 17.1321 186.266 16.8719 186.771 16.4824" stroke="#CC9477" stroke-width="0.926407"/>
<path d="M185.636 22.0231C170.725 20.4702 137.487 18.2835 123.829 21.9601" stroke="#CC9477" stroke-width="0.926407"/>
<path d="M185.635 22.0228C171.199 23.452 140.543 25.8955 133.41 24.2358" stroke="#CC9477" stroke-width="0.926407"/>
<path d="M158.748 31.191C146.704 29.1294 118.856 24.9188 103.812 24.5695C88.7682 24.2202 80.8799 23.8011 78.8162 23.6351" stroke="#CC9477" stroke-width="0.926407"/>
<path d="M223.478 45.0876C219.286 47.1762 201.622 50.1515 182.075 47.7157C157.641 44.6709 137.181 36.1314 126.632 41.8761C116.083 47.6208 65.7441 42.9166 61.8555 41.876C58.7447 41.0435 30.0122 46.4929 15.9624 47.7157" stroke="#CC9477" stroke-width="0.926407"/>
<path d="M224.5 49.8064C218.736 52.9707 204.761 58.7133 194.98 56.3695C182.753 53.4398 148.471 49.7451 142.197 52.175C136.875 54.2359 134.513 56.8394 135.432 59.9545" stroke="#CC9477" stroke-width="0.926407"/>
<path d="M150.656 17.9225C120.059 15.8343 48.3357 14.8466 35.084 17.2439" stroke="#CC9477" stroke-width="0.926407"/>
<path d="M140.671 51.5313C130.61 48.8932 105.64 44.9087 86.2487 50.0761C62.0093 56.5353 59.1523 55.7634 51.5949 56.1304C45.549 56.424 36.6031 56.737 32.8858 56.8569" stroke="#CC9477" stroke-width="0.926407"/>
<path d="M89.7603 49.0503L20.9512 52.4283" stroke="#CC9477" stroke-width="0.926407"/>
<path d="M222.48 40.7319C218.044 41.809 201.838 39.8905 196.042 38.7363C188.798 37.2936 173.752 37.2939 166.112 38.7363C158.472 40.1787 110.169 39.7346 102.753 32.6055C96.8208 26.9021 42.6991 26.3836 11.9723 27.7621" stroke="#CC9477" stroke-width="0.926407"/>
<path d="M226.185 21.1519C209.075 21.6044 173.123 21.9346 166.193 19.6352C159.263 17.3359 71.1325 22.8983 27.9337 25.9669" stroke="#CC9477" stroke-width="0.926407"/>
<path d="M220.961 18.9482C211.543 18.5584 191.29 16.3475 188.721 16.5711C185.674 16.8362 158.034 17.1686 148.475 15.1499C140.827 13.5349 132.662 13.1571 129.536 13.1701" stroke="#CC9477" stroke-width="0.926407"/>
<path d="M223.976 25.767C206.195 25.9324 169.159 25.3743 162.121 30.7553C155.083 36.1363 91.1538 36.8977 62.7223 37.3854L3.68608 39.4136" stroke="#CC9477" stroke-width="0.926407"/>
<path d="M222.01 31.3782C213.442 30.8282 196.941 30.3465 199.486 32.8202C202.031 35.2939 215.727 34.7757 222.256 34.2074" stroke="#CC9477" stroke-width="0.926407"/>
<path d="M223.138 29.4664C211.358 29.1959 188.636 29.3593 191.988 32.1775C196.177 35.7001 196.565 36.4438 221.77 36.0642" stroke="#CC9477" stroke-width="0.926407"/>
<g filter="url(#filter0_i)">
<path d="M108.791 27.5562L107.064 28.008L106.113 27.6566H96.74L96 28.4096V50.6988L98.3256 51L101.849 50.247L101.99 47.3855L101.391 45.5281L101.074 40.8092H102.871L105.549 40.1566L106.183 40.4076H107.381L107.699 39.6044L107.875 38.3996L107.381 38.0984L104.774 37.496H101.004L100.722 36.743V32.0743L100.616 31.8233L100.933 31.4217L102.237 31.7229L102.307 32.2751L102.378 32.3253L102.977 31.7229H108.474L109.038 30.6185L108.791 27.5562Z" fill="#56321E"/>
<path d="M129.728 49.996C129.54 48.6573 129.375 47.4525 129.234 46.3815C129.093 45.2771 128.953 44.2062 128.812 43.1687C128.694 42.1312 128.565 41.0435 128.424 39.9056C128.283 38.7677 128.119 37.5127 127.931 36.1406C127.813 35.9398 127.719 35.6553 127.649 35.2871C127.578 34.919 127.52 34.5341 127.473 34.1325C127.426 33.7309 127.379 33.3293 127.332 32.9277C127.308 32.4926 127.285 32.1412 127.261 31.8735C127.191 31.2711 127.108 30.5683 127.015 29.7651C126.921 28.9618 126.733 28.2088 126.451 27.506C126.38 27.3722 126.263 27.1546 126.098 26.8534C125.957 26.5187 125.875 26.3179 125.852 26.251C125.546 26.251 125.276 26.251 125.041 26.251C124.806 26.2175 124.571 26.2008 124.337 26.2008C124.102 26.1673 123.855 26.1506 123.597 26.1506C123.362 26.1171 123.08 26.0837 122.751 26.0502C122.516 26.0502 122.328 26.0502 122.187 26.0502C122.07 26.0502 121.94 26.0335 121.8 26C121.706 26 121.612 26 121.518 26H121.271C120.778 27.004 120.308 27.9411 119.861 28.8112C119.415 29.6479 118.992 30.4846 118.593 31.3213C118.194 32.158 117.806 33.0616 117.43 34.0321C117.078 35.0027 116.737 36.1238 116.408 37.3956C116.103 38.5335 115.809 39.3534 115.527 39.8554C115.269 40.3574 115.081 40.7925 114.964 41.1606C114.705 41.83 114.494 42.3989 114.329 42.8675C114.188 43.3025 114 43.8548 113.766 44.5241L113.237 46.8835C113.143 47.2517 113.049 47.6198 112.955 47.988C112.885 48.3561 112.802 48.7577 112.708 49.1928C112.732 49.494 112.755 49.745 112.779 49.9458C112.802 50.1131 112.838 50.3139 112.885 50.5482H116.62C116.808 49.8454 116.984 49.2095 117.148 48.6406C117.313 48.0716 117.465 47.5194 117.606 46.9839C117.771 46.415 117.935 45.8293 118.1 45.2269C118.264 44.6245 118.452 43.9552 118.663 43.2189C118.804 43.0181 119.004 42.8842 119.262 42.8173C119.544 42.7503 119.85 42.7169 120.179 42.7169C120.507 42.6834 120.848 42.6667 121.2 42.6667C121.576 42.6667 121.917 42.6667 122.222 42.6667C122.716 42.6667 123.209 42.6667 123.702 42.6667C124.219 42.6332 124.724 42.5997 125.217 42.5663C125.264 43.0013 125.3 43.4197 125.323 43.8213C125.37 44.2229 125.394 44.4906 125.394 44.6245C125.394 44.7584 125.37 44.842 125.323 44.8755C125.276 44.909 125.253 45.0763 125.253 45.3775C125.253 46.2811 125.288 47.0843 125.358 47.7871C125.429 48.4565 125.511 49.1928 125.605 49.996L126.697 50.1466C126.838 50.1801 126.991 50.2135 127.155 50.247C127.32 50.247 127.52 50.247 127.754 50.247C127.966 50.247 128.142 50.2303 128.283 50.1968C128.447 50.1299 128.6 50.1131 128.741 50.1466L129.728 49.996ZM124.9 39.504L124.724 39.8052H123.209C122.927 39.8052 122.645 39.8052 122.363 39.8052C122.105 39.7718 121.893 39.755 121.729 39.755C121.142 39.822 120.601 39.8554 120.108 39.8554C120.108 39.822 120.096 39.8052 120.073 39.8052C120.073 39.7718 120.073 39.7383 120.073 39.7048V39.6546L120.566 38.1486C120.801 37.245 121.083 36.3414 121.412 35.4378C121.741 34.5007 122.128 33.7477 122.575 33.1787C122.716 33.0114 122.857 32.8273 122.998 32.6265C123.162 32.4257 123.303 32.1747 123.42 31.8735C123.514 31.8735 123.597 31.8902 123.667 31.9237C123.738 31.9237 123.784 31.9237 123.808 31.9237H123.914V31.9739C123.914 32.0408 123.949 32.091 124.019 32.1245C124.09 32.9277 124.207 33.6138 124.372 34.1827C124.536 34.7517 124.642 35.3039 124.689 35.8394L124.759 37.6466C124.783 37.9478 124.795 38.249 124.795 38.5502C124.818 38.8179 124.853 39.1359 124.9 39.504Z" fill="#56321E"/>
<path d="M148.793 43.6707C148.958 43.4364 149.134 43.1687 149.322 42.8675C149.51 42.5663 149.686 42.2483 149.851 41.9137C150.038 41.5455 150.191 41.1774 150.309 40.8092C150.426 40.4076 150.485 40.0395 150.485 39.7048C150.485 37.0944 150.109 34.7517 149.357 32.6767C148.606 30.6017 147.513 28.9953 146.08 27.8574C146.01 27.7905 145.916 27.757 145.798 27.757H145.129C145.011 27.757 144.906 27.7738 144.812 27.8072C144.741 27.8072 144.647 27.8072 144.53 27.8072C144.295 27.8072 144.095 27.7738 143.931 27.7068C143.766 27.6399 143.672 27.4893 143.649 27.255L140.266 28.2088C139.679 28.51 139.103 28.8949 138.54 29.3635C137.976 29.832 137.447 30.4177 136.954 31.1205C136.484 31.7898 136.097 32.5763 135.791 33.4799C135.509 34.3835 135.333 35.421 135.263 36.5924C135.216 37.5964 135.157 38.5335 135.086 39.4036C135.039 40.2403 135.016 41.0602 135.016 41.8635C135.016 42.4324 135.039 43.0013 135.086 43.5703C135.133 44.1058 135.239 44.6747 135.404 45.2771L135.826 46.2309L140.795 48.741C141.053 48.741 141.265 48.741 141.429 48.741C141.617 48.741 141.781 48.7242 141.922 48.6908C142.087 48.6238 142.239 48.5402 142.38 48.4398C142.521 48.3394 142.709 48.172 142.944 47.9378L145.728 46.2811C145.916 46.7162 146.115 47.1513 146.327 47.5863C146.562 48.0214 146.879 48.5234 147.278 49.0924C147.255 49.427 147.337 49.6948 147.525 49.8956C147.736 50.0629 147.924 50.2135 148.089 50.3474L148.758 50.8494L149.992 50.0462C150.461 49.7115 150.908 49.427 151.331 49.1928C151.777 48.925 152 48.6908 152 48.49C152 48.2222 151.906 47.9712 151.718 47.7369C151.554 47.4692 151.331 47.1178 151.049 46.6827L150.132 45.4779C149.898 45.1432 149.663 44.842 149.428 44.5743C149.216 44.2731 149.005 43.9719 148.793 43.6707ZM146.785 40.508L145.975 39.253C145.857 39.0187 145.728 38.8012 145.587 38.6004C145.469 38.3661 145.352 38.1319 145.235 37.8976L143.543 35.3876C143.426 35.4545 143.285 35.6386 143.12 35.9398C142.979 36.241 142.815 36.5589 142.627 36.8936C142.439 37.2282 142.251 37.5294 142.063 37.7972C141.899 38.0649 141.734 38.1988 141.57 38.1988C141.5 38.1988 141.453 38.1486 141.429 38.0482L143.226 41.6124C143.297 41.7128 143.344 41.7631 143.367 41.7631L141.852 42.2651H141.218L139.914 40.508V40.006C139.914 39.6714 139.902 39.3534 139.879 39.0522C139.879 38.751 139.879 38.4498 139.879 38.1486C139.879 37.747 139.89 37.3621 139.914 36.994C139.961 36.5924 140.055 36.1238 140.196 35.5884C140.384 35.421 140.583 35.1867 140.795 34.8855C141.006 34.5509 141.229 34.2329 141.464 33.9317C141.723 33.5971 141.993 33.3126 142.275 33.0783C142.557 32.8106 142.862 32.6767 143.191 32.6767C143.355 32.6767 143.567 32.7269 143.825 32.8273C144.084 32.8942 144.365 33.0114 144.671 33.1787C145 33.3126 145.305 33.4799 145.587 33.6807C145.869 33.8481 146.127 33.9987 146.362 34.1325C146.738 34.4672 147.067 34.9023 147.349 35.4378C147.631 35.9398 147.842 36.6426 147.983 37.5462L146.785 40.508Z" fill="#56321E"/>
</g>
<defs>
<filter id="filter0_i" x="96" y="26" width="56" height="26" filterUnits="userSpaceOnUse" color-interpolation-filters="sRGB">
<feFlood flood-opacity="0" result="BackgroundImageFix"/>
<feBlend mode="normal" in="SourceGraphic" in2="BackgroundImageFix" result="shape"/>
<feColorMatrix in="SourceAlpha" type="matrix" values="0 0 0 0 0 0 0 0 0 0 0 0 0 0 0 0 0 0 127 0" result="hardAlpha"/>
<feOffset dy="1"/>
<feGaussianBlur stdDeviation="0.5"/>
<feComposite in2="hardAlpha" operator="arithmetic" k2="-1" k3="1"/>
<feColorMatrix type="matrix" values="0 0 0 0 0 0 0 0 0 0 0 0 0 0 0 0 0 0 0.3 0"/>
<feBlend mode="normal" in2="shape" result="effect1_innerShadow"/>
</filter>
</defs>
</svg>

<svg width="234" height="74" fill="none" xmlns="http://www.w3.org/2000/svg"><path d="M233.298 17.217L232.62 8.4l-11.19 25.093 2.712 6.782 9.156-23.058z" fill="#5B4132"/><path d="M0 42.987V37.9l24.076-23.058L232.28 8.738l-10.851 25.093 9.495 28.145-2.374 4.408-201.762-4.408L0 42.986z" fill="#785340"/><path d="M.339 37.562l23.736-22.72L232.62 8.4 222.107 34.17l8.816 27.806-202.778-3.052L.339 37.562z" fill="#AD795E"/><path d="M227.967 15.056c-11.09-1.021-37.294-2.075-39.702 0-2.408 2.076-1.999 1.816-1.494 1.426M185.636 22.023c-14.911-1.553-48.149-3.74-61.807-.063M185.635 22.023c-14.436 1.429-45.092 3.872-52.225 2.213M158.748 31.191c-12.044-2.062-39.892-6.272-54.936-6.621-15.044-.35-22.932-.769-24.996-.935M223.478 45.088c-4.192 2.088-21.856 5.063-41.403 2.628-24.434-3.045-44.894-11.585-55.443-5.84-10.549 5.745-60.888 1.04-64.776 0-3.111-.832-31.844 4.617-45.894 5.84M224.5 49.806c-5.764 3.165-19.739 8.907-29.52 6.564-12.227-2.93-46.509-6.625-52.783-4.195-5.322 2.06-7.684 4.664-6.765 7.78M150.656 17.922c-30.597-2.088-102.32-3.075-115.572-.678" stroke="#CC9477" stroke-width=".926"/><path d="M140.671 51.531c-10.061-2.638-35.031-6.622-54.422-1.455-24.24 6.46-27.097 5.687-34.654 6.054-6.046.294-14.992.607-18.71.727M89.76 49.05l-68.809 3.378M222.48 40.732c-4.436 1.077-20.642-.841-26.438-1.996-7.244-1.442-22.29-1.442-29.93 0-7.64 1.443-55.943.999-63.359-6.13-5.932-5.704-60.054-6.222-90.78-4.844M226.185 21.152c-17.11.452-53.062.783-59.992-1.517s-95.06 3.263-138.26 6.332M220.961 18.948c-9.418-.39-29.671-2.6-32.24-2.377-3.047.265-30.687.598-40.246-1.421-7.648-1.615-15.813-1.993-18.939-1.98" stroke="#CC9477" stroke-width=".926"/><path d="M223.976 25.767c-17.781.165-54.817-.393-61.855 4.988-7.038 5.381-70.967 6.143-99.399 6.63L3.686 39.414M222.01 31.378c-8.568-.55-25.069-1.032-22.524 1.442 2.545 2.474 16.241 1.956 22.77 1.387" stroke="#CC9477" stroke-width=".926"/><path d="M223.138 29.466c-11.78-.27-34.502-.107-31.15 2.712 4.189 3.522 4.577 4.266 29.782 3.886" stroke="#CC9477" stroke-width=".926"/><g filter="url(#filter0_i)" fill="#56321E"><path d="M108.791 27.556l-1.727.452-.951-.351H96.74l-.74.753v22.289l2.326.301 3.523-.753.141-2.861-.599-1.858-.317-4.719h1.797l2.678-.652.634.25h1.198l.318-.803.176-1.204-.494-.302-2.607-.602h-3.77l-.282-.753v-4.669l-.106-.25.317-.402 1.304.3.07.553.071.05.599-.602h5.497l.564-1.104-.247-3.063zM129.728 49.996a428.65 428.65 0 01-.494-3.614 401.637 401.637 0 00-.422-3.213 296.11 296.11 0 00-.881-7.028c-.118-.201-.212-.486-.282-.854a15.802 15.802 0 01-.176-1.154l-.141-1.205a32.618 32.618 0 00-.071-1.054l-.246-2.109a8.778 8.778 0 00-.564-2.259 58.175 58.175 0 00-.353-.653 15.641 15.641 0 01-.246-.602h-.811a4.986 4.986 0 00-.704-.05 5.247 5.247 0 00-.74-.05 21.694 21.694 0 00-.846-.1h-.564c-.117 0-.247-.017-.387-.051H121.271a174.124 174.124 0 01-1.41 2.811 62.844 62.844 0 00-1.268 2.51c-.399.837-.787 1.74-1.163 2.711-.352.97-.693 2.092-1.022 3.364-.305 1.137-.599 1.957-.881 2.46a8.748 8.748 0 00-.563 1.305c-.259.669-.47 1.238-.635 1.706-.141.436-.329.988-.563 1.657l-.529 2.36-.282 1.104c-.07.368-.153.77-.247 1.205.024.301.047.552.071.753.023.167.059.368.106.602h3.735c.188-.703.364-1.339.528-1.907.165-.57.317-1.122.458-1.657.165-.569.329-1.155.494-1.757.164-.602.352-1.272.563-2.008.141-.2.341-.335.599-.402.282-.067.588-.1.917-.1.328-.034.669-.05 1.021-.05h2.502l1.515-.1c.047.434.083.853.106 1.254.047.402.071.67.071.803 0 .134-.024.218-.071.252-.047.033-.07.2-.07.502 0 .903.035 1.706.105 2.41.071.669.153 1.405.247 2.208l1.092.15c.141.034.294.068.458.101h.599c.212 0 .388-.017.529-.05a.743.743 0 01.458-.05l.987-.151zM124.9 39.504l-.176.301H122.363a5.148 5.148 0 00-.634-.05c-.587.067-1.128.1-1.621.1 0-.033-.012-.05-.035-.05V39.655l.493-1.506c.235-.904.517-1.808.846-2.711.329-.937.716-1.69 1.163-2.26.141-.167.282-.35.423-.551.164-.201.305-.452.422-.754.094 0 .177.017.247.05h.247v.05c0 .068.035.118.105.151.071.804.188 1.49.353 2.059.164.569.27 1.12.317 1.656l.07 1.808c.024.3.036.602.036.903.023.268.058.586.105.954zM148.793 43.67c.165-.234.341-.501.529-.803.188-.3.364-.619.529-.953.187-.369.34-.737.458-1.105.117-.401.176-.77.176-1.104 0-2.61-.376-4.953-1.128-7.028-.751-2.075-1.844-3.682-3.277-4.82a.391.391 0 00-.282-.1h-.669a.94.94 0 00-.317.05h-.282c-.235 0-.435-.033-.599-.1-.165-.067-.259-.218-.282-.452l-3.383.954a9.45 9.45 0 00-1.726 1.154 8.93 8.93 0 00-1.586 1.758c-.47.669-.857 1.455-1.163 2.359-.282.904-.458 1.941-.528 3.112a81.617 81.617 0 01-.177 2.812c-.047.836-.07 1.656-.07 2.46 0 .568.023 1.137.07 1.706a9.69 9.69 0 00.318 1.707l.422.954 4.969 2.51h.634c.188 0 .352-.017.493-.05.165-.067.317-.15.458-.251.141-.1.329-.268.564-.502l2.784-1.657c.188.435.387.87.599 1.305.235.435.552.937.951 1.506-.023.335.059.603.247.804.211.167.399.318.564.451l.669.502 1.234-.803c.469-.334.916-.619 1.339-.853.446-.268.669-.502.669-.703 0-.268-.094-.519-.282-.753-.164-.268-.387-.62-.669-1.054l-.917-1.205a10.418 10.418 0 00-.704-.904l-.635-.903zm-2.008-3.162l-.81-1.255a5.214 5.214 0 00-.388-.653l-.352-.702-1.692-2.51c-.117.067-.258.25-.423.552-.141.301-.305.619-.493.954-.188.334-.376.635-.564.903-.164.268-.329.402-.493.402-.07 0-.117-.05-.141-.15l1.797 3.563c.071.1.118.151.141.151l-1.515.502h-.634l-1.304-1.757v-.502c0-.335-.012-.653-.035-.954v-.903c0-.402.011-.787.035-1.155.047-.402.141-.87.282-1.406.188-.167.387-.401.599-.703.211-.334.434-.652.669-.953.259-.335.529-.62.811-.854.282-.267.587-.401.916-.401.164 0 .376.05.634.15.259.067.54.184.846.352.329.134.634.3.916.502.282.167.54.318.775.452.376.334.705.77.987 1.305.282.502.493 1.205.634 2.108l-1.198 2.962z"/></g><defs><filter id="filter0_i" x="96" y="26" width="56" height="26" filterUnits="userSpaceOnUse" color-interpolation-filters="sRGB"><feFlood flood-opacity="0" result="BackgroundImageFix"/><feBlend in="SourceGraphic" in2="BackgroundImageFix" result="shape"/><feColorMatrix in="SourceAlpha" values="0 0 0 0 0 0 0 0 0 0 0 0 0 0 0 0 0 0 127 0" result="hardAlpha"/><feOffset dy="1"/><feGaussianBlur stdDeviation=".5"/><feComposite in2="hardAlpha" operator="arithmetic" k2="-1" k3="1"/><feColorMatrix values="0 0 0 0 0 0 0 0 0 0 0 0 0 0 0 0 0 0 0.3 0"/><feBlend in2="shape" result="effect1_innerShadow"/></filter></defs></svg>
